X: 217
T: Flat Water Fran
R: waltz
C: Phil Cunningham
M: 3/4
L: 1/8
K: Gmaj
DE|:"G"G2G2DE|G2G2Bd|"C"e2d2G2|"G"B4DE|G2G2DE|"Am"A2A2GA|
"Em"B2AG ED|"C"E4DE|"G"G2G2DE|G2G2Bd|"C"e2d2g2|"G"B4dB|
"Am"A2AG AB|"Em"AGE2GE|"C"DEG2"D7"G2|1 "G"G4DE:|2 "G"G4Bd||
|:"C"e2d2G2|"G"B4Bd|"C"e2d2G2|"G"B4Bd|"C"e2d2g2|"Em"B2dB AG|
"Am"EA AG AB|"D"A4Bd|"C"e2d2g2|"G"B2dB AG|"D7"A2d3c|"Em"B3B AG|
"Am"EA AG AB|"Em"AG E2GE|1 "C"DEG2"D7"G2|"G"G4Bd:|2 "C"DEG2"D7"A2|"G"G4|| 

